X:1
T:Bermuda, 10.10.10.10 D
T:Bermuda, 10.10.10.10 D
T:Ira David Sankey, 1890
T:Public Domain Courtesy of the Cyber Hymnal™
C:Ira David Sankey, 1890
Z:Public Domain
Z:Courtesy of the Cyber Hymnal™
%%score ( 1 2 ) 3
L:1/8
Q:1/4=115
M:3/4
K:Db
V:1 treble 
V:2 treble 
V:3 bass 
V:1
 [DF]2 [DF]2 [EG]2 | [FA]3 [GB] [FA]2 | [DF]2 [DG]2 [DB]2 | [DA]6 | [CA]2 [CE]2 [DF]2 | %5
 [EG]3 [DF] [EG]2 | [CE]2 [CA]2 [EG]2 | [DF]6 | [DF]2 [DF]2 [EG]2 | [FA]3 [GB] [FA]2 | %10
 [DF]2 [FA]2 [Fd]2 | [GB]6 | [Bd]2 [Ac]2 [GB]2 | [FA]3 [DF] D2 | [DF]2 D2 [CE]2 | D6 | %16
 A2 [=GB]2 [_Gc]2 | [Fd]3 [Ec] [Fd]2 | [Ge]2 [Fd]2 [Gc]2 | [Fd]6 | [Bd]2 [Ac]2 [GB]2 | %21
 [FA]3 [DF] [DF]2 | [DF]2 [DE]2 [B,D]2 | [CA]6 | [DF]2 [DF]2 [EG]2 | [FA]3 [GB] [FA]2 | %26
 [DF]2 [FA]2 [Fd]2 | [Af]6 | [Ge]2 [Gd]2 [GB]2 | [FA]3 [DF] D2 | [DF]2 D2 [CE]2 | D6 |] %32
V:2
 x6 | x6 | x6 | x6 | x6 | x6 | x6 | x6 | x6 | x6 | x6 | x6 | x6 | x4 D2 | x2 D2 x2 | D6 | A2 x4 | %17
 x6 | x6 | x6 | x6 | x6 | x6 | x6 | x6 | x6 | x6 | x6 | x6 | x4 D2 | x2 D2 x2 | D6 |] %32
V:3
 [D,A,]2 [D,A,]2 [D,A,]2 | [D,D]3 [D,D] [D,D]2 | [_C,A,]2 [B,,G,]2 [G,,G,]2 | [D,F,]6 | %4
 [A,,F,]2 [A,,A,]2 [A,,A,]2 | [A,,A,]3 [A,,A,] [A,,A,]2 | [A,,A,]2 [A,,A,]2 [C,A,]2 | [D,A,]6 | %8
 [D,A,]2 [D,A,]2 [D,A,]2 | [D,D]3 [D,D] [D,D]2 | [D,A,]2 [D,D]2 [D,D]2 | [G,D]6 | %12
 [G,D]2 [G,D]2 [G,,D]2 | [D,D]3 [D,A,] [D,F,]2 | [A,,A,]2 [A,,F,]2 [A,,G,]2 | [D,F,]6 | %16
 [A,C]2 [A,D]2 [A,E]2 | [D,D]3 [D,A,] [D,A,]2 | [A,C]2 [A,D]2 [A,E]2 | [B,D]6 | %20
 [G,D]2 [G,D]2 [G,D]2 | [D,D]3 [D,A,] [D,A,]2 | [E,=G,]2 [E,G,]2 [E,B,]2 | [A,,A,]6 | %24
 [D,A,]2 [D,A,]2 [D,A,]2 | [D,D]3 [D,D] [D,D]2 | [D,A,]2 [D,D]2 [D,A,]2 | [D,D]6 | %28
 [G,B,]2 [G,B,]2 [G,D]2 | [D,D]3 [D,A,] [D,F,]2 | [A,,B,]2 [A,,F,]2 [A,,G,]2 | [D,F,]6 |] %32

